X: 41695
T: Valentia
R: jig
M: 6/8
K: Dmajor
|:D3 DFA|d2f edB|AdA BAF|E3 EDE|
FDD DFA|d2f edB|A2B Adf|1 efe dAF:|2 efe dfa||
|:b3 baf|afd edB|Add df/g/a|baf efa|
[1 b3 baf|afd edB|Adf afd|efe dfa:|
[2 baf afe|df/e/d BdB|Adf afd|efe dAF||

